X:1
T:Ne Irascaris duo tablature only
T:Ne irascaris
T:attributed to William Byrd
T:nalvi.org
T:Duo for Two Viols from the John Merro collection (1673)
%%score ( 1 2 ) ( 3 4 )
L:1/8
Q:1/4=100
M:2/2
K:C
V:1 tab stafflines=6 strings=D2,G2,C3,E3,A3,D4 nostems nm="Viol 1 - ffeff"
V:2 tab stafflines=6 strings=D2,G2,C3,E3,A3,D4 nostems 
V:3 tab stafflines=6 strings=C2,G2,C3,E3,A3,D4 nostems nm="Viol 2 - ffefh"
V:4 tab stafflines=6 strings=C2,G2,C3,E3,A3,D4 nostems 
V:1
 !4!C,8 | !4!C,8 | !4!C,8 | !4!C,4 !4!C,4 | !4!C,8 | !4!C,8 | !4!D,8 | !4!D,4 !4!D,4 | !4!D,8 | %9
 !4!D,4 !3!F,4- | !3!F,2 !3!E,2 !4!C,4 | [!5!G,,!4!D,]4 [!4!D,!3!G,]4 |"^A" [!4!E,!3!G,!2!C]8 | %13
 [!4!C,!3!G,!2!C]8 | !2!C8 | !2!C4 !2!C4 | !2!C8 | !2!C8 | !1!D8 | !1!D4 !1!D4 | !1!D8 | %21
"^B" !1!D4 !1!D4- | !1!x2 !1!E2 !2!C4 | [!2!C!1!D]4 [!2!B,!1!D]4 |"^C" [!4!C,!3!E,!2!C!1!E]8 | %25
 [!4!C,!3!G,]4 [!3!E,!2!C]4 | [!3!F,!2!C]4 [!2!A,!1!F]4 | [!3!F,!2!A,]4 !1!F4 | %28
 [!2!A,!1!F]2 !3!G,2 [!3!G,!2!_B,!1!D]4 | [!3!G,!2!A,!1!D]4 [!3!^F,!2!A,!1!D]4 | %30
"^D" [!3!G,!2!B,!1!D]4 !4!D,2 !3!E,2 | !3!F,2 !3!G,2 !2!C2 x2 | !1!D2 x2 [!2!C!1!E]4 | %33
 [!2!C!1!F]4 [!2!B,!1!F]4 |"^E" [!2!C!1!E]4 !3!G,4 | [!4!C,!3!G,]4 [!2!C!1!E]4 | %36
 [!4!C,!3!G,]4 [!2!C!1!E]4 | [!2!A,!1!F]2 !2!C2 [!2!B,!1!F]2 !2!A,2 | [!2!B,!1!D]4 !3!G,4 | %39
 [!3!G,!2!B,!1!D]4 !1!E4 | [!2!A,!1!E]2 !1!D2 !2!C2 !2!B,2 | [!3!A,!2!C]4 !2!A,4 | %42
 [!3!E,!2!B,]4 [!3!^G,!2!B,]4 | [!3!E,!2!B,]8 |"^F" !2!A,4 [!2!C!1!E]4 | !2!A,4 !2!C4 | %46
 [!2!A,!1!F]4 !2!C2 !1!E2 | [!2!B,!1!D]4 [!3!A,!2!C]4 | %48
 [!2!C!1!D]2 !2!B, !2!A, [!2!B,!1!D]2 !3!G,2 |"^G" [!2!C!1!E]4 !3!E,4 | %50
 [!5!G,,!4!D,]4 [!5!A,,!4!C,]4 | [!3!F,!2!A,]6 !3!E,2 | [!4!D,!3!F,]4 [!5!A,,!4!C,]4 | %53
 !5!B,,4 !3!E,4 | [!5!G,,!4!D,]4 [!3!G,!2!B,]4 | %55
"^(  )""^H""^(  )" [!5!A,,!4!C,!3!E,!2!A,]4 !3!G,4 | [!3!E,!2!C]4 !1!E2 !2!B,2 | %57
 [!2!A,!1!D]4 [!3!E,!2!C]4 | [!4!D,!3!F,!2!A,!1!F]4 !4!C,2 !1!E2 | %59
 [!3!F,!2!C!1!D]2 !2!B,2 [!3!A,!2!C]2 !3!E,2 | [!5!G,,!4!D,!3!G,!2!B,]4 [!3!E,!2!C]4 | %61
 [!3!G,!2!C]4 [!3!G,!2!B,]4 | [!4!C,!3!G,!2!C]8 |"^I" !1!G8 | !1!G8 | [!2!C!1!E]8 | !2!C8 | %67
 !3!G,4 !1!G4 | !1!G8 | [!2!_B,!1!D]8 | [!2!_B,!1!D]4 !2!A,2 !3!G,2 | %71
 [!3!^F,!2!A,!1!D]2 !3!G,2 [!2!A,!1!D]2 !1!E2 | [!2!A,!1!F]2 !1!D2 [!2!A,!1!F]4 | %73
 [!2!A,!1!F]4 !1!E4 | [!3!F,!2!A,!1!E]4 !1!D2 [!2!B,!1!D]2 | [!2!C!1!E]2 !2!A,2 [!2!C!1!E]4 | %76
"^J" [!3!E,!2!C]4 !2!_B,4 | !2!A,4 !2!A,4 | [!4!C,!3!G,]4 !2!C4 |"^K" !1!A8 | [!2!A,!1!A]8 | %81
 [!2!D!1!^F]4 !4!D,2 !3!E,2 | [!3!^F,!2!A,!1!D]2 !3!G,2 !2!A,2 !3!F,2 | [!3!G,!2!B,]4 !1!G4 | %84
 !1!G4 [!2!D!1!F]4 | !1!E2 !2!C2 [!2!C!1!E]4 | [!3!G,!2!B,!1!D]4 [!3!G,!2!B,!1!D]4 | %87
"^L" [!4!C,!3!G,!2!C]4 [!3!F,!2!C]4 | [!3!E,!2!C]4 !2!B,2 !3!G,2 | %89
 [!4!D,!3!G,]4 [!4!D,!3!^F,]2 !2!A,2 | !3!G,6 !2!A,2 | [!3!E,!2!B,]2 !4!D,2 !2!A,2 !4!D,2 | %92
 !4!D,4 [!4!^C,!3!G,]4 | [!4!D,!3!G,]4 [!4!D,!3!F,!2!A,!1!D]4 | [!3!E,!2!D]2 !2!C2 [!3!E,!2!C]4 | %95
 [!5!G,,!4!D,!3!G,!2!C]4 [!3!G,!2!B,]4 |"^\nM" [!4!C,!3!G,!2!C]4 !3!E,4 | %97
 [!3!G,!2!C]2 !3!F,2 [!4!C,!3!G,]4 | !2!A,4 [!3!A,!2!C]4 | !3!G,2 !1!D2 [!2!C!1!E]4 | %100
 [!2!A,!1!F]4 [!2!D!1!F]4 | !1!D4 !1!D4 |"^N" [!3!G,!2!B,!1!D]4 !3!G,2 !2!A,2 | %103
 [!2!B,!1!G]2 !3!G,2 !1!D4 | !1!G2 !2!C2 [!2!C!1!G]4 | [!2!C!1!F]4 [!2!B,!1!F]4 | %106
"^O" [!2!C!1!E]4 !5!G,,4- | !5!G,,2 !6!F,,2 !5!G,,4 | !5!A,,4 !4!C,4- | !4!C,2 !4!D,2 !3!E,4 | %110
 [!4!C,!3!G,]4 [!5!G,,!4!D,]2 !4!C,2 |"^P" [!5!G,,!4!D,]2 !5!A,,2 !5!B,,2 !4!C,2 | %112
 !4!D,2 !3!E,2 !3!F,2 !3!G,2 | [!3!F,!2!A,]6 !3!E,2 | !4!D,2 !4!C,2 [!4!C,!3!G,]4 | %115
 [!4!C,!3!F,]4 !5!B,,4 |"^Q" [!4!C,!3!E,]4 [!4!C,!3!E,!2!C]4- | !4!x2 !1!D2 [!2!C!1!E]4 | %118
 !1!G4 [!2!C!1!G]4 | [!2!C!1!D]4- [!2!C!1!D]3 !2!B,/ !2!A,/ |"^R" [!2!B,!1!D]4 !3!G,4 | %121
 [!4!E,!3!G,]4 [!2!A,!1!E]2 !2!B,2 | [!2!C!1!E]2 !1!F2 [!2!B,!1!G]4 | %123
 [!2!A,!1!A]2 !3!G,2 !2!A,2 !2!B,2 | !2!C2 !1!A2 [!2!C!1!G]4 | [!3!F,!2!A,!1!F]4 [!2!B,!1!D]4 | %126
"^S" [!3!E,!2!C!1!G]4 !3!G,2 !1!F2 | !1!E2 !2!A,2 [!3!G,!2!B,!1!D]2 !1!E2 | %128
 [!2!A,!1!F]4 [!2!C!1!E]2 !2!A,2 | [!2!C!1!E]4 [!3!G,!2!B,]4 |"^T" [!3!F,!2!A,]4 !2!C4 | %131
 !3!E,2 (!1!D2 !1!E2) !3!G,2 | !1!G2 !2!A,2 [!2!B,!1!D]4 | [!2!A,!1!F]4 [!4!C,!3!E,!2!C!1!E]4 | %134
"^U" !4!C,2 !4!D,2 [!3!E,!2!C]4 | [!3!G,!2!B,]4 !4!D,4 | %136
 [!3!F,!2!A,]4 [!4!C,!3!E,!2!C!1!E]2 !4!D,2 | !3!E,2 !1!F2 !1!G4 | !1!A2 !3!F,2 [!2!A,!1!A]4- | %139
 [!2!A,!1!A]2 !2!B,2 [!2!C!1!G]4 | [!2!D!1!G]4 [!2!D!1!^F]4 |"^V" [!2!D!1!G]4 [!2!C!1!E]4 | %142
 [!2!B,!1!G]4 !3!G,2 !2!A,2 | !2!B,2 !3!G,2 !1!D4 | !3!G,2 !2!C2 !1!G4 | %145
 !2!C2 !1!F2 [!3!G,!2!B,!1!D]4 | !fermata![!4!C,!3!G,!2!C!1!E]8 |] %147
V:2
 x8 | x8 | x8 | x8 | x8 | x8 | x8 | x8 | x8 | x8 | x8 | x8 | x8 | x8 | x8 | x8 | x8 | x8 | x8 | %19
 x8 | x8 | x8 | x8 | x8 | x8 | x8 | x8 | x8 | x8 | x8 | x8 | x4 (!3!A,2 !3!G,2) | %32
 (!2!A,2 !2!B,2) x4 | x8 | x8 | x8 | x8 | x8 | x8 | x8 | x8 | x4 !3!A,4 | x8 | x8 | !3!A,4 x4 | %45
 x8 | x8 | x8 | x8 | x8 | x8 | x8 | x8 | x8 | x8 | x8 | x8 | x8 | x8 | x8 | x8 | x8 | x8 | x8 | %64
 x8 | x8 | x8 | x8 | x8 | x8 | x8 | x8 | x8 | x8 | x8 | x8 | x8 | !3!A,4 !3!A,4 | x8 | x8 | x8 | %81
 x8 | x8 | x8 | x8 | x8 | x8 | x8 | x8 | x8 | x8 | x8 | x8 | x8 | x8 | x8 | x8 | x8 | !3!A,4 x4 | %99
 x8 | x8 | !2!D4 !2!A,4 | x8 | x8 | x8 | x8 | x8 | x8 | x8 | x8 | x8 | x8 | x8 | x8 | x8 | x8 | %116
 x8 | x8 | x8 | x8 | x8 | x8 | x8 | x8 | x8 | x8 | x8 | x8 | x8 | x8 | x8 | x8 | x8 | x8 | x8 | %135
 x8 | x8 | x8 | x8 | x8 | x8 | x8 | x8 | x4 !2!D4 | x8 | x8 | x8 |] %147
V:3
 x8 |"_Tune bottom string of Viol 2 down to low C" [!6!C,,!5!G,,]8 | [!6!F,,!5!A,,]8 | %3
 [!6!F,,!5!A,,]4 [!6!E,,!5!G,,]4 | [!6!F,,!5!A,,]6 !5!G,,2 | [!6!F,,!5!A,,!4!C,]4 [!5!A,,!4!C,]4 | %6
 [!5!G,,!4!C,]4 !5!B,,2 !5!A,,2 | [!6!G,,!5!B,,]6 !5!A,,2 | %8
 [!6!G,,!5!B,,]2 !4!C,2 [!5!G,,!4!D,]2 !5!A,,2 | [!6!D,,!5!B,,]2 !5!C,2 !4!D,2 !6!E,,2 | %10
 !6!F,,2 !5!G,,2 [!5!A,,!4!C,]4 | [!5!G,,!4!C,]4 [!6!G,,!5!B,,]4 | [!6!C,,!5!C,]4 [!4!C,!3!G,]4 | %13
 [!4!C,!3!E,]4 !4!C,4 | [!3!F,!2!A,]8 | [!3!F,!2!A,]4 [!4!E,!3!G,]4 | [!3!F,!2!A,]6 !3!G,2 | %17
 !2!A,4 !2!C4 | [!3!G,!2!C]4 !2!B,2 !2!A,2 | [!3!G,!2!B,]8 | [!3!G,!2!A,]4 [!3!^F,!2!A,]4 | %21
 [!3!G,!2!B,]2 !2!C2 [!4!D,!3!F,!2!A,!1!D]2 !3!E,2 | [!3!F,!2!A,!1!D]2 !3!G,2 [!3!A,!2!C]4 | %23
 [!5!G,,!4!D,!3!G,]2 !3!F,2 [!5!G,,!4!D,]4 | [!6!C,,!5!G,,!4!C,!3!G,]4 !6!C,,4 | %25
 [!6!C,,!5!C,]4 !4!C,4 | [!6!F,,!5!C,]8 | [!6!F,,!5!A,,]4 [!6!F,,!5!A,,]4 | %28
 !6!D,,2 !4!D,2 [!5!G,,!4!D,]4 | !6!D,,4 !4!D,2 !6!D,,2 | [!5!G,,!4!D,]4 !5!B,,2 !4!C,2 | %31
 !4!D,2 !3!E,2 !3!F,2 !3!G,2 | [!3!F,!2!A,]2"^(  )" [!4!E,!3!G,]2"^*" [!4!C,!3!G,]4 | %33
 [!4!D,!3!F,]4 !4!D,4 | [!4!C,!3!G,]4 !6!C,,4 | !4!C,4 !6!C,,4 | [!4!C,!3!E,]4 !6!C,,4 | %37
 [!6!F,,!5!C,]8 | [!5!G,,!4!D,]4 [!5!G,,!4!D,]4 | [!5!G,,!4!G,]8 | [!5!A,,!4!F,]4 [!5!A,,!4!E,]4 | %41
 !5!A,,2 !4!D,2 !4!C,2 !5!A,,2 | [!6!E,,!5!B,,]4 !3!E,4 | !6!E,,4 !3!E,4 | %44
"_( )" [!4!D,!3!F,]4"_( )" [!4!C,!3!G,]4 | [!3!F,!2!A,]6 !3!E,2 | !4!D,4 !4!C,4 | !3!G,4 !2!A,4 | %48
 !3!G,4 !5!G,,4 | [!4!C,!3!G,]4 !6!C,,4 | !5!G,,4 [!5!A,,!4!E,]4 | !4!D,2 !6!F,,2 !4!C,4 | %52
 !2!A,4 !6!F,,2 !3!E,2 | [!5!G,,!4!D,]4 [!5!G,,!4!C,]4 | [!5!C,!4!D,]4 [!5!B,,!4!D,]4 | %55
 [!6!C,,!5!C,]6 !5!B,,2 | [!5!A,,!4!E,]4 [!6!E,,!5!G,,]4 | [!6!F,,!5!A,,]4 [!5!A,,!4!C,]4 | %58
 !6!F,,4 !5!A,,4 | !6!F,,8 | [!5!G,,!4!G,]2 !4!D,2 [!5!G,,!4!G,]4- | %61
 [!5!G,,!4!G,]2 !3!F,2 [!5!G,,!4!D,]4 | [!6!C,,!4!C,]8 | [!6!C,,!5!C,]8 | [!4!C,!3!G,]8 | %65
"_* (Notes in parentheses not in original)" !3!G,8 | [!6!C,,!5!C,]8 | [!5!G,,!4!D,]4 !3!E,4 | %68
 [!5!G,,!4!D,!3!G,!2!_B,]6 !2!A,2 | !3!G,2 !3!F,2 [!5!G,,!4!D,!3!G,]4 | %70
 [!4!D,!3!G,]4 !3!^F,2 !3!E,2 | !4!D,4 !6!D,,4 | !4!D,6 !3!E,2 | !3!F,2 !4!D,2 [!4!^C,!3!E,]4 | %74
 !4!D,4 !4!D,4 | [!5!A,,!4!E,]6 !3!F,2 | [!4!C,!3!G,]2 !3!E,2 !3!G,4 | %77
 !4!C,2 !3!F,2 [!3!F,!2!A,]2 !2!B,2 | [!4!C,!3!F,!2!C]4 [!4!C,!3!E,]4 | [!3!F,!2!A,]4 !6!F,,4 | %80
 [!6!F,,!5!A,,]4 !6!F,,4 | !6!D,,8 | !4!D,4 !6!D,,4 | [!5!G,,!4!D,]6 !5!A,,2 | %84
 !5!B,,2 !4!C,2 !4!D,2 !5!B,,2 | [!4!C,!3!G,]4 !6!C,,4 | [!5!G,,!4!D,]4 !5!G,,4 | !3!G,4 !2!A,4- | %88
 !2!A,2 !3!G,2 !3!G,4 | !2!A,4 !4!D,4 | !4!D,4 !4!C,4 | [!6!G,,!5!B,,]4 !4!D,2 !6!F,,2 | %92
 [!6!E,,!5!G,,]6 !5!A,,2 | [!6!D,,!5!B,,]4 !5!A,,4 | [!6!E,,!5!G,,]4 !6!C,,4 | %95
 !5!G,,2 !3!F,2 [!5!G,,!4!D,]4 | [!4!C,!3!E,]4 !6!C,,4 | !4!C,2 !4!D,2 [!4!C,!3!E,]4 | %98
 [!3!F,!2!A,]4 !6!F,,4 | !4!C,4 !6!C,,4 | !6!D,,4 !4!D,4 | !4!D,2 !3!E,2 !3!^F,2 !4!D,2 | !3!G,8 | %103
 !3!G,4 !3!F,4 | !3!E,4 !4!D,2 !4!C,2 | [!4!D,!3!A,]4 [!4!D,!3!F,]4 | [!4!C,!3!G,]4 !6!C,,4- | %107
 !6!C,,2 !6!D,,2 !6!E,,4 | !6!F,,8 | !6!C,,8 | !4!C,4 !5!B,,2 !5!A,,2 | !5!B,,4 !5!G,,2 !5!A,,2 | %112
 !5!B,,2 !4!C,2 !4!D,2 !6!D,,2- | !6!D,,2 !6!E,,2 !6!F,,4 | !6!F,,2 !6!E,,2 !6!C,,4 | !6!D,,8 | %116
 !6!C,,8 | [!6!C,,!5!C,]4 [!6!C,,!5!C,]4- | [!6!C,,!4!C,]2 !4!D,2 !3!E,4 | !3!G,4 !5!G,,4 | %120
 [!5!G,,!4!D,]2 [!5!A,,!4!D,]2 [!5!B,,!4!D,]4 | [!4!C,!3!E,]6 !5!B,,2 | %122
 [!5!A,,!4!C,]2 !4!D,2 [!5!G,,!4!E,]4 | [!3!F,!2!A,]4 !6!F,,4 | !4!C,2 !4!D,2 !3!E,2 x2 | %125
 !4!C,4 [!6!D,,!5!B,,]4 | [!6!C,,!5!C,]8 | !4!C,4 !5!B,,4 | [!5!A,,!4!C,]4 !5!A,,4- | %129
 !5!x4 !5!G,,4 | !6!F,,2 !5!G,,2 !5!A,,2 [!5!B,,!4!D,]2 | %131
 [!4!C,!3!E,]2 !3!F,2 [!4!C,!3!G,]2"_Letter (a) is on 2nd string in original""^(  )" !3!E,2 | %132
 [!5!G,,!4!D,]4 !5!G,,4 | [!5!A,,!4!C,]6 !5!B,,2 | !4!C,4 [!5!A,,!4!C,]4 | [!5!G,,!4!D,]8 | %136
 [!5!A,,!4!C,]8 | [!5!A,,!4!C,]2 !4!D,2 [!5!G,,!4!E,]4 | [!6!F,,!5!C,!4!F,]4 !4!D,2 !6!D,,2 | %139
 !6!F,,4 !6!E,,4 | [!6!D,,!5!B,,]4 !5!A,,4 | !5!G,,2 !3!G,2 !5!G,,2 !5!A,,2 | %142
 ([!5!B,,!4!D,]2 !5!G,,2) [!5!G,,!4!E,]4 | [!5!G,,!4!D,]4 (!3!G,2 !2!A,2) | %144
 !2!B,2 !3!G,2 ([!5!G,,!4!D,]2 !4!C,2) | [!5!G,,!4!D,]4 [!5!G,,!4!D,]4 | %146
 !fermata![!6!C,,!4!C,!3!E,]8 |] %147
V:4
 x8 | x8 | x8 | x8 | x8 | x8 | x8 | x8 | x8 | x8 | x8 | x8 | x8 | x8 | x8 | x8 | x8 | %17
 !3!A,4 !3!A,4 | x8 | x8 | x8 | x8 | x8 | x8 | x8 | x8 | x8 | x8 | x8 | x8 | x8 | x8 | x8 | x8 | %34
 x8 | x8 | x8 | x8 | x8 | x8 | x8 | x8 | x4 !4!E,4 | x8 | x8 | x8 | x8 | x8 | x8 | x8 | x8 | x8 | %52
 x8 | x8 | x8 | x8 | x8 | x8 | x8 | x8 | x8 | x8 | !5!C,8 | x8 | x8 | x8 | x8 | x8 | x8 | x8 | x8 | %71
 x8 | x8 | x8 | x8 | x8 | x8 | x8 | x8 | x8 | x8 | x8 | x8 | x8 | x8 | x8 | x8 | x8 | x8 | x8 | %90
 x8 | x8 | x8 | x8 | x8 | x8 | x8 | x8 | x8 | !5!C,4 x4 | x8 | x8 | x8 | x8 | x8 | x8 | x8 | x8 | %108
 x8 | x8 | x8 | x8 | x8 | x8 | x8 | x8 | x8 | x8 | x8 | x8 | x8 | !5!C,6 x2 | x8 | x8 | %124
 x6 ([!6!E,,!5!C,-]2 | !6!D,,4) x4 | x8 | x8 | x8 | x8 | x8 | x8 | x8 | x8 | x8 | x8 | x8 | x8 | %138
 x8 | x8 | x8 | x8 | x8 | x8 | x8 | x8 | !5!C,8 |] %147

